svgs/duotone/mosque.svg

<svg xmlns="http://www.w3.org/2000/svg" viewBox="0 0 640 512"><!--! Font Awesome Pro 6.5.1 by @fontawesome - https://fontawesome.com License - https://fontawesome.com/license (Commercial License) Copyright 2023 Fonticons, Inc. --><defs><style>.fa-secondary{opacity:.4}</style></defs><path class="fa-secondary" d="M412.8 6.4C409.8 2.4 405 0 400 0s-9.8 2.4-12.8 6.4c-34.7 46.3-78.1 74.9-133.5 111.5l0 0c-5.2 3.5-10.6 7-16 10.6c-28.9 19.2-45.7 51.7-45.7 86.1c0 28.6 11.3 54.5 29.8 73.4H578.2c18.4-19 29.8-44.9 29.8-73.4c0-34.4-16.7-66.9-45.7-86.1c-5.4-3.6-10.8-7.1-16-10.6l0 0C490.9 81.3 447.5 52.7 412.8 6.4zM89.6 5.2C83.9 .9 76.1 .9 70.4 5.2l-16 12C20.2 42.9 0 83.2 0 126v34H160V126c0-42.8-20.2-83.1-54.4-108.8l-16-12z"/><path class="fa-primary" d="M160 160V264.6c-19.1 11.1-32 31.7-32 55.4V480c0 9.6 2.1 18.6 5.8 26.8c-6.6 3.4-14 5.2-21.8 5.2H48c-26.5 0-48-21.5-48-48V176 160H160zM352 512H288V440c0-13.3-10.7-24-24-24s-24 10.7-24 24v72H192c-17.7 0-32-14.3-32-32V320c0-17.7 14.3-32 32-32H608c17.7 0 32 14.3 32 32V480c0 17.7-14.3 32-32 32H560V440c0-13.3-10.7-24-24-24s-24 10.7-24 24v72H448V454c0-19-8.4-37-23-49.2L400 384l-25 20.8C360.4 417 352 435 352 454v58z"/></svg>

<svg xmlns="http://www.w3.org/2000/svg" viewBox="0 0 640 512"><!--! Font Awesome Pro 6.1.1 by @fontawesome - https://fontawesome.com License - https://fontawesome.com/license (Commercial License) Copyright 2022 Fonticons, Inc. --><defs><style>.fa-secondary{opacity:.4}</style></defs><path class="fa-primary" d="M160 264.6C140.9 275.6 128 296.3 128 320V480C128 489.6 130.1 498.6 133.8 506.8C127.3 510.1 119.9 512 112 512H48C21.49 512 0 490.5 0 464V160H160V264.6zM352 512H288V440C288 426.7 277.3 416 264 416C250.7 416 240 426.7 240 440V512H192C174.3 512 160 497.7 160 480V320C160 302.3 174.3 288 192 288H608C625.7 288 640 302.3 640 320V480C640 497.7 625.7 512 608 512H560V440C560 426.7 549.3 416 536 416C522.7 416 512 426.7 512 440V512H448V453.1C448 434.1 439.6 416.1 424.1 404.8L400 384L375 404.8C360.4 416.1 352 434.1 352 453.1V512z"/><path class="fa-secondary" d="M546.3 117.9C551.5 121.4 556.9 124.9 562.3 128.5C591.3 147.7 608 180.2 608 214.6C608 243.1 596.7 269 578.2 288H221.8C203.3 269 191.1 243.1 191.1 214.6C191.1 180.2 208.7 147.7 237.7 128.5C243.1 124.9 248.5 121.4 253.7 117.9C309.1 81.34 352.5 52.7 387.2 6.4C390.2 2.371 394.1 0 400 0C405 0 409.8 2.371 412.8 6.4C447.5 52.7 490.9 81.34 546.3 117.9H546.3zM105.6 17.2C139.8 42.88 160 83.19 160 126V160H0V126C0 83.19 20.15 42.88 54.4 17.2L70.4 5.2C76.09 .9334 83.91 .9334 89.6 5.2L105.6 17.2z"/></svg>
